_inc/systems/logos/channelf.svg

<?xml version="1.0" encoding="utf-8"?>
<svg id="Warstwa_1" data-name="Warstwa 1" viewBox="0 0 264 47" xmlns="http://www.w3.org/2000/svg">
  <title>Sharp_X1_logo</title>
  <path d="M 264 27.317 C 263.65 29.933 263.354 32.563 262.936 35.167 C 262.665 36.858 262.247 38.531 261.829 40.198 C 261.379 42.537 259.444 44.298 257.079 44.517 C 251.856 45.24 246.62 46.147 241.396 46.579 C 230.987 47.388 220.517 46.88 210.234 45.067 C 209.804 44.993 209.373 44.857 208.942 44.82 C 205.122 44.53 203.085 42.463 202.273 38.704 C 200.015 28.538 200.055 17.993 202.39 7.845 C 203.141 4.58 204.9 2.771 208.272 2.179 C 218.116 0.445 227.996 -0.499 237.957 0.167 C 244.307 0.593 250.613 1.598 256.937 2.377 C 259.459 2.546 261.515 4.469 261.859 6.98 C 262.561 10.61 263.09 14.269 263.705 17.917 C 263.797 18.478 263.883 19.04 263.97 19.602 Z M 230.66 27.768 L 243.316 27.768 L 243.316 19.126 L 230.747 19.126 L 230.747 14.047 L 243.316 14.047 L 243.316 4.611 L 221.29 4.611 L 221.29 42.358 L 230.673 42.358 Z" fill="white"/>
  <path d="M 47.608 41.382 L 47.608 28.187 L 37.241 28.187 L 37.241 41.29 L 28.375 41.29 L 28.375 7.017 L 37.161 7.017 L 37.161 20.133 L 47.564 20.133 L 47.564 7.011 L 56.504 7.011 L 56.504 37.377 L 56.775 37.445 C 56.978 37.038 57.205 36.643 57.39 36.21 C 61.688 26.842 65.981 17.464 70.267 8.079 C 70.509 7.281 71.288 6.773 72.113 6.876 C 76.555 6.931 81.003 6.876 85.556 6.876 L 85.556 41.29 L 76.801 41.29 L 76.801 28.113 C 74.586 28.113 72.531 28.07 70.482 28.156 C 70.162 28.156 69.769 28.724 69.59 29.113 C 67.861 32.815 66.145 36.519 64.477 40.296 C 64.275 41.02 63.581 41.493 62.835 41.414 C 57.821 41.351 52.806 41.382 47.608 41.382 Z M 76.684 14.134 L 76.444 14.134 L 73.718 20.114 L 76.684 20.114 Z" fill="white"/>
  <path d="M 108.941 24.688 L 108.941 6.999 L 117.807 6.999 L 117.807 41.376 C 114.989 41.376 112.189 41.408 109.39 41.339 C 109.046 41.339 108.627 40.821 108.393 40.457 C 105.096 35.34 101.829 30.211 98.55 25.089 C 98.297 24.688 98.027 24.305 97.571 23.645 L 97.571 41.29 L 88.7 41.29 L 88.7 6.925 C 91.505 6.925 94.304 6.888 97.104 6.962 C 97.448 6.962 97.854 7.487 98.094 7.857 C 101.376 12.971 104.657 18.094 107.938 23.225 C 108.184 23.613 108.461 24.009 108.941 24.688 Z" fill="white"/>
  <path d="M 149.627 41.382 C 146.809 41.382 144.09 41.42 141.358 41.339 C 140.97 41.339 140.491 40.833 140.238 40.438 C 136.91 35.297 133.618 30.131 130.321 24.972 C 130.093 24.614 129.841 24.281 129.373 23.607 L 129.373 41.29 L 120.588 41.29 L 120.588 6.925 C 123.362 6.925 126.162 6.925 128.961 6.962 C 129.299 6.962 129.712 7.487 129.952 7.857 C 133.233 12.967 136.514 18.088 139.795 23.218 C 140.054 23.626 140.324 24.015 140.823 24.761 L 140.823 6.987 L 149.633 6.987 Z" fill="white"/>
  <path d="M 152.734 41.29 L 152.734 7.017 L 171.763 7.017 L 171.763 14.751 L 161.643 14.751 L 161.643 20.207 L 171.757 20.207 L 171.757 28.095 L 161.606 28.095 L 161.606 33.495 L 171.745 33.495 L 171.745 41.29 Z" fill="white"/>
  <path d="M 26.166 20.88 C 23.705 16.424 20.014 14.541 15.898 15.473 C 9.226 17.001 6.705 25.201 11.36 30.234 C 12.313 31.264 13.494 32.053 14.809 32.539 C 19.048 34.087 22.58 32.6 26.296 27.533 L 26.296 31.668 C 26.296 34.05 26.296 36.433 26.296 38.821 C 26.404 39.483 26.015 40.125 25.379 40.333 C 18.611 43.178 12.219 42.592 6.552 37.895 C 0.886 33.199 -1.224 26.785 0.689 19.584 C 2.572 12.485 7.389 8.141 14.594 6.623 C 18.202 5.871 21.957 6.344 25.268 7.968 C 25.769 8.229 26.126 8.704 26.24 9.258 C 26.32 12.881 26.283 16.504 26.277 20.121 C 26.257 20.375 26.22 20.629 26.166 20.88 Z" fill="white"/>
  <path d="M 183.705 33.514 L 193.937 33.514 L 193.937 41.29 L 174.907 41.29 L 174.907 6.974 L 183.705 6.974 Z" fill="white"/>
</svg>

<?xml version="1.0" encoding="UTF-8" standalone="no"?><svg data-name="Warstwa 1" viewBox="0 0 264 47" version="1.1" id="svg1" xmlns="http://www.w3.org/2000/svg" xmlns:svg="http://www.w3.org/2000/svg"><title id="title1">Sharp_X1_logo</title><path fill="currentColor" d="M264 27.32c-.35 2.61-.65 5.24-1.06 7.85a60 60 0 0 1-1.11 5.03 5.34 5.34 0 0 1-4.75 4.32c-5.22.72-10.46 1.63-15.68 2.06-10.41.8-20.88.3-31.17-1.51-.43-.08-.86-.21-1.29-.25-3.82-.29-5.85-2.36-6.67-6.12a70 70 0 0 1 .12-30.86c.75-3.26 2.51-5.07 5.88-5.66C218.12.45 228-.5 237.96.17c6.35.42 12.65 1.43 18.98 2.2a5.3 5.3 0 0 1 4.92 4.61c.7 3.63 1.23 7.29 1.84 10.94l.27 1.68Zm-33.34.45h12.66v-8.64h-12.57v-5.08h12.57V4.6h-22.03v37.75h9.38ZM47.6 41.38v-13.2H37.25V41.3h-8.87V7.02h8.8v13.11h10.4V7.01h8.93v30.37l.27.06q.32-.6.62-1.23 6.45-14.06 12.88-28.13a1.7 1.7 0 0 1 1.84-1.2c4.45.05 8.9 0 13.45 0v34.41H76.8V28.11c-2.21 0-4.27-.04-6.32.05-.32 0-.71.56-.89.95-1.73 3.7-3.45 7.4-5.11 11.19-.2.72-.9 1.2-1.65 1.11-5-.06-10.02-.03-15.22-.03m29.08-27.25h-.24l-2.72 5.98h2.96Zm32.25 10.56V6.99h8.87v34.39c-2.82 0-5.62.03-8.42-.04-.34 0-.76-.52-1-.88q-4.94-7.68-9.84-15.37c-.25-.4-.52-.79-.98-1.45V41.3H88.7V6.93c2.8 0 5.6-.04 8.4.03.35 0 .75.53 1 .9l9.84 15.37c.24.38.52.78 1 1.46m40.69 16.69c-2.82 0-5.54.04-8.27-.04-.39 0-.87-.5-1.12-.9q-4.98-7.71-9.92-15.47c-.23-.36-.48-.69-.95-1.36v17.68h-8.78V6.93q4.16 0 8.37.03c.34 0 .75.53 1 .9l9.83 15.36 1.03 1.54V7h8.81Zm3.1-.09V7.02h19.03v7.73h-10.12v5.46h10.12v7.88H161.6v5.4h10.13v7.8ZM26.17 20.88c-2.47-4.46-6.16-6.34-10.27-5.4a8.93 8.93 0 0 0-1.1 17.06c4.25 1.55 7.78.06 11.5-5v11.28c.1.66-.29 1.3-.92 1.51-6.77 2.85-13.16 2.26-18.83-2.43C.9 33.2-1.22 26.79.7 19.58c1.88-7.1 6.7-11.44 13.9-12.96 3.61-.75 7.37-.28 10.68 1.35.5.26.86.73.97 1.29.08 3.62.04 7.24.04 10.86q-.03.37-.11.76M183.7 33.51h10.24v7.78H174.9V6.97h8.8Z" id="path1" style="fill:#ffffff"/></svg>
